public/images/case-studies/maikeinc/feature4.svg

<svg width="64" height="64" viewBox="0 0 64 64" fill="none" xmlns="http://www.w3.org/2000/svg">
<path d="M1.57146 39.8838C1.92243 40.1269 2.29272 40.341 2.67861 40.5237C3.14046 40.7595 3.9127 41.1541 3.9671 41.4314C4.03498 41.7956 3.99149 42.1718 3.8423 42.5109C3.68337 42.8522 3.51591 43.1455 3.37299 43.3994C2.98153 44.0884 2.32876 45.2436 3.31432 46.0499C3.54471 46.2633 3.94256 46.5715 4.30628 46.8499C4.039 47.3166 3.91788 47.8528 3.95856 48.389C4.01459 48.8088 4.24107 49.1869 4.58467 49.4343C4.82466 49.605 5.08172 49.7543 5.33131 49.8983C5.95849 50.2556 6.20381 50.422 6.29127 50.7516C6.34864 51.1855 6.30856 51.6268 6.17394 52.0433C6.11101 52.3206 6.05022 52.5969 6.01075 52.8806C5.90503 53.8534 6.0285 54.8375 6.37127 55.7541C6.84997 57.4526 8.38593 58.6361 10.1503 58.666C10.4432 58.6649 10.7351 58.6341 11.0218 58.5742C14.0689 57.8521 17.0715 56.9535 20.0145 55.8831C22.4165 57.2932 23.9354 61.5811 24.3311 63.1906C24.4497 63.666 24.8769 63.9995 25.3668 63.9991L52.1391 63.9244C52.4784 63.9238 52.7971 63.7617 52.9976 63.488C53.198 63.2143 53.2563 62.8615 53.1545 62.5378C52.8907 61.8152 52.527 61.133 52.074 60.5112C51.8178 60.1433 51.5869 59.7585 51.3829 59.3593C50.9006 58.381 50.4979 57.3655 50.1786 56.3226C49.5702 54.2612 49.1479 52.1493 48.9168 50.0124C48.5424 46.8213 49.0262 43.5881 50.3184 40.6464C51.1069 39.0149 52.0788 37.4787 53.2153 36.0674C53.8553 35.2034 54.5198 34.3085 55.1161 33.3688C56.1412 31.7763 56.8845 30.0191 57.3133 28.1743C57.436 27.6049 57.0792 27.0423 56.5117 26.9106C55.9442 26.779 55.3761 27.1269 55.2355 27.6922C54.8605 29.3023 54.211 30.8358 53.3156 32.2254C52.762 33.1011 52.122 33.9629 51.5023 34.797C50.2681 36.3371 49.2149 38.0138 48.3632 39.7942C46.9188 43.0841 46.379 46.7001 46.7996 50.2684C47.0455 52.5347 47.4957 54.7741 48.1446 56.9594C48.495 58.1068 48.9377 59.224 49.4683 60.3C49.7115 60.7808 49.9877 61.2441 50.2949 61.6867L50.3664 61.7933L26.1732 61.8658C25.4642 59.3358 24.1787 57.0043 22.4176 55.0544L23.3775 54.7205C24.0943 54.4699 24.6351 54.2811 24.9146 54.1872C29.4818 52.7313 31.7666 50.6513 31.7036 48.0008C31.7007 47.7177 31.5832 47.4478 31.3781 47.2527C31.1729 47.0576 30.8975 46.9538 30.6146 46.9651C30.0259 46.9791 29.5599 47.4675 29.5736 48.0563C29.5992 49.1474 28.7 50.7452 24.266 52.1574C23.9759 52.2502 23.4127 52.4454 22.6757 52.7046C21.8832 52.9809 20.8784 53.3328 19.7692 53.7094H19.7617C16.762 54.8093 13.7014 55.7352 10.5951 56.4826C9.60162 56.6694 8.63587 56.0454 8.39786 55.0629C8.16846 54.4609 8.07839 53.8147 8.1344 53.1728C8.16533 52.9595 8.21547 52.7355 8.26453 52.5179C8.49153 51.7734 8.5282 50.9839 8.37119 50.2215C8.06143 49.2447 7.34305 48.4505 6.4022 48.0445L6.17288 47.9133C6.28785 47.6798 6.42577 47.4583 6.58459 47.252C6.76331 47.025 6.84229 46.7352 6.80349 46.449C6.76469 46.1627 6.61142 45.9044 6.37874 45.7331C6.12381 45.5454 5.52544 45.0932 5.07745 44.7369C5.12865 44.6441 5.18412 44.5417 5.23851 44.45C5.40597 44.1556 5.59797 43.81 5.78356 43.4186C6.12159 42.6714 6.22067 41.8381 6.06728 41.0325C5.81236 39.7312 4.56547 39.0934 3.65564 38.6283C3.34911 38.4825 3.05515 38.3116 2.77674 38.1174C2.54816 37.9644 2.33396 37.7909 2.13677 37.5991C2.13677 37.4369 2.31063 37.0455 3.12233 36.0567C5.03097 33.5975 6.66715 30.9385 8.00214 28.1264C8.25275 27.6855 8.39394 27.191 8.41386 26.6843C8.30215 25.6111 7.73155 24.6387 6.84912 24.0177C6.41713 23.6209 6.00862 23.2476 5.96275 22.933C5.97253 22.6716 6.03114 22.4144 6.13555 22.1746C6.30941 21.7181 6.511 21.2701 6.71152 20.821C7.16131 19.8946 7.51858 18.926 7.77815 17.9294C8.02257 16.734 8.34321 15.5555 8.73811 14.401C9.57882 12.0803 10.8807 9.95372 12.5652 8.14952C14.6046 5.98961 17.8151 4.4622 22.1243 3.60676C25.4204 2.8831 28.765 2.40113 32.1313 2.16469C33.264 2.10632 34.3994 2.13056 35.5285 2.23722C35.9089 2.27266 36.2792 2.10251 36.5 1.79088C36.7209 1.47924 36.7587 1.07346 36.5992 0.726385C36.4398 0.37931 36.1072 0.143672 35.7269 0.108233C34.4944 -0.00470007 33.2554 -0.0292953 32.0193 0.0346356C28.549 0.275432 25.101 0.770249 21.7029 1.51511C16.8935 2.47507 13.3982 4.16141 11.0132 6.68291C9.12991 8.6962 7.67417 11.0703 6.73392 13.6618C6.30167 14.923 5.95074 16.2106 5.6833 17.5166C5.45533 18.3542 5.14892 19.1685 4.76813 19.9485C4.55481 20.4338 4.33508 20.9192 4.14309 21.4237C3.90034 21.9876 3.80068 22.6028 3.85297 23.2145C4.07361 24.1666 4.627 25.0086 5.41344 25.5889C5.93609 26.0678 6.28061 26.4048 6.28487 26.6992C6.24605 26.8611 6.18503 27.0169 6.10355 27.1621C4.82652 29.8517 3.26152 32.3948 1.43599 34.7469C0.663757 35.6887 -0.146879 36.7863 0.0227149 37.8849C0.249847 38.732 0.807918 39.4523 1.57146 39.8838Z" fill="#7F8284"/>
<path d="M35.0507 5.97458L34.4107 9.16592C33.7938 9.36851 33.1933 9.61812 32.6145 9.91256L29.9064 8.0993C29.0602 7.54515 27.9412 7.66142 27.227 8.37769L25.4564 10.1472C24.726 10.8643 24.6079 11.999 25.1748 12.8511L26.9795 15.5465C26.6851 16.1252 26.4355 16.7257 26.2329 17.3427L23.0458 17.9826C22.05 18.1838 21.3342 19.0594 21.335 20.0754V22.5926C21.3342 23.6069 22.0478 24.4814 23.0416 24.6843L26.2329 25.3242C26.4355 25.9412 26.6851 26.5417 26.9795 27.1204L25.1663 29.8286C24.6121 30.6748 24.7284 31.7938 25.4447 32.508L27.2153 34.2786C27.9336 35.0056 29.0658 35.1231 29.9181 34.5591L32.6135 32.7543C33.1922 33.0488 33.7927 33.2984 34.4097 33.501L35.0496 36.6881C35.2504 37.6843 36.126 38.4007 37.1424 38.4H39.6596C40.6739 38.4007 41.5484 37.6872 41.7512 36.6934L42.3912 33.5021C43.0082 33.2995 43.6087 33.0498 44.1874 32.7554L46.8956 34.5687C47.7418 35.1228 48.8608 35.0066 49.5749 34.2903L51.3445 32.5208C52.0748 31.8037 52.193 30.669 51.6261 29.8169L49.8213 27.1215C50.1158 26.5427 50.3654 25.9422 50.568 25.3253L53.755 24.6853C54.3881 24.5573 54.9286 24.1484 55.2238 23.5739L56.8312 24.6512C57.1413 24.8466 57.5003 24.9505 57.8669 24.9509C58.3782 24.951 58.8685 24.7472 59.229 24.3845L60.6476 22.9659C61.2927 22.3175 61.3963 21.3062 60.8961 20.5404L59.5202 18.4818C59.7197 18.0807 59.8922 17.6666 60.0364 17.2424L62.4502 16.7614C63.3533 16.5839 64.0034 15.7906 64 14.8702V12.865C64.0032 11.9481 63.3576 11.1568 62.4587 10.976L60.0343 10.4928C59.8912 10.0685 59.7194 9.65439 59.5202 9.25339L60.9174 7.17027C61.4016 6.40732 61.2907 5.41043 60.6508 4.77249L59.2322 3.35388C58.5839 2.70836 57.5723 2.60471 56.8067 3.10536L54.7481 4.4813C54.3469 4.28172 53.9329 4.10925 53.5087 3.96506L53.0265 1.55128C52.8492 0.648574 52.0564 -0.00146785 51.1365 0.00147695H49.1312C48.2143 -0.00175874 47.4231 0.643829 47.2422 1.54275L46.759 3.96719C46.3346 4.11129 45.9205 4.28413 45.5196 4.4845L43.4365 3.08722C42.6734 2.60388 41.677 2.71468 41.0387 3.35388L40.0788 4.31384C39.9409 4.28508 39.8005 4.26972 39.6596 4.26798H37.1424C36.1281 4.26726 35.2536 4.9808 35.0507 5.97458ZM51.3573 10.1558L50.8592 9.65764C52.7079 9.90512 54.1784 11.3307 54.4831 13.1709C54.7878 15.0111 53.8553 16.8346 52.185 17.6648L50.5658 17.3448C50.3632 16.7279 50.1136 16.1274 49.8192 15.5486L51.6325 12.8404C52.1886 11.9945 52.0736 10.8743 51.3573 10.159V10.1558ZM42.4296 4.97622L44.8679 6.61455C45.2099 6.84384 45.6532 6.85588 46.0071 6.64549C46.6177 6.28614 47.2743 6.01163 47.959 5.82952C48.3502 5.72387 48.6478 5.40564 48.727 5.00822L49.2997 2.13473H50.968L51.5407 5.01462C51.6199 5.41204 51.9175 5.73026 52.3087 5.83592C52.9934 6.01803 53.65 6.29254 54.2606 6.65189C54.6157 6.86037 55.0591 6.84584 55.3998 6.61455L57.8381 4.97835L59.022 6.16231L57.3869 8.60168C57.1576 8.94361 57.1456 9.38697 57.356 9.74083C57.7153 10.3514 57.9898 11.0081 58.1719 11.6928C58.2776 12.084 58.5958 12.3815 58.9932 12.4607L61.8731 13.0335V14.7017L58.9986 15.2745C58.6012 15.3537 58.2829 15.6512 58.1773 16.0425C57.9952 16.7271 57.7207 17.3838 57.3613 17.9944C57.1509 18.3482 57.1629 18.7916 57.3922 19.1335L59.0284 21.5718L57.8445 22.7558L55.467 21.1655V20.0754C55.4671 19.4509 55.1944 18.8575 54.7203 18.4509C56.5982 16.6419 57.1874 13.8728 56.2086 11.456C55.2299 9.03926 52.8799 7.46044 50.2725 7.46786C49.6276 7.47191 48.9873 7.577 48.375 7.77931C47.8538 7.70338 47.3229 7.82019 46.8817 8.10783L44.1885 9.91256C43.6097 9.61812 43.0092 9.36851 42.3923 9.16592L41.7523 5.97885C41.7334 5.89339 41.7088 5.80929 41.6787 5.72712L42.4296 4.97622ZM36.3744 10.2165L37.1424 6.40123H39.6596L40.4265 10.2197C40.5062 10.6161 40.8032 10.9333 41.1934 11.0389C42.0747 11.2765 42.9212 11.6279 43.7117 12.0842C44.0639 12.2885 44.5018 12.2745 44.8402 12.0479L48.0678 9.8891L49.8555 11.6672L47.6902 14.898C47.4637 15.2364 47.4496 15.6742 47.6539 16.0265C48.1103 16.8169 48.4617 17.6635 48.6992 18.5448C48.8049 18.935 49.1221 19.2319 49.5184 19.3117L53.3337 20.0743V22.5926L49.5152 23.3595C49.1189 23.4392 48.8017 23.7362 48.696 24.1264C48.4585 25.0077 48.1071 25.8542 47.6507 26.6447C47.4464 26.997 47.4605 27.4348 47.687 27.7732L49.8459 31.0008L48.0678 32.7885L44.837 30.6232C44.4986 30.3967 44.0607 30.3826 43.7085 30.587C42.918 31.0433 42.0715 31.3947 41.1902 31.6323C40.8 31.7379 40.503 32.0551 40.4233 32.4514L39.6596 36.2667H37.1424L36.3755 32.4482C36.2957 32.0519 35.9988 31.7347 35.6085 31.6291C34.7273 31.3915 33.8807 31.0401 33.0902 30.5838C32.738 30.3794 32.3002 30.3935 31.9618 30.62L28.7341 32.7789L26.9465 31.0008L29.1117 27.77C29.3382 27.4316 29.3523 26.9938 29.148 26.6415C28.6917 25.851 28.3403 25.0045 28.1027 24.1232C27.997 23.733 27.6799 23.436 27.2835 23.3563L23.4682 22.5926V20.0754L27.2867 19.3085C27.6831 19.2287 28.0002 18.9318 28.1059 18.5416C28.3435 17.6603 28.6949 16.8137 29.1512 16.0233C29.3555 15.671 29.3414 15.2332 29.1149 14.8948L26.9561 11.6672L28.7341 9.8795L31.965 12.0447C32.3034 12.2713 32.7412 12.2853 33.0934 12.081C33.8839 11.6247 34.7305 11.2733 35.6117 11.0357C36.0003 10.9287 36.2954 10.6118 36.3744 10.2165Z" fill="#FF6B00"/>
<path d="M38.4009 28.8004C42.5245 28.8004 45.8673 25.4576 45.8673 21.3341C45.8673 17.2105 42.5245 13.8677 38.4009 13.8677C34.2774 13.8677 30.9346 17.2105 30.9346 21.3341C30.9393 25.4557 34.2793 28.7957 38.4009 28.8004ZM38.4009 16.0009C41.3464 16.0009 43.7341 18.3886 43.7341 21.3341C43.7341 24.2795 41.3464 26.6672 38.4009 26.6672C35.4555 26.6672 33.0678 24.2795 33.0678 21.3341C33.0713 18.3901 35.457 16.0045 38.4009 16.0009Z" fill="#FF6B00"/>
<path d="M38.4011 22.4008C38.9902 22.4008 39.4677 21.9233 39.4677 21.3342C39.4677 20.7451 38.9902 20.2676 38.4011 20.2676C37.812 20.2676 37.3345 20.7451 37.3345 21.3342C37.3345 21.9233 37.812 22.4008 38.4011 22.4008Z" fill="#FF6B00"/>
</svg>

<svg xmlns="http://www.w3.org/2000/svg" width="64" height="64" fill="none" xmlns:v="https://vecta.io/nano"><path d="M1.571 39.884c.351.243.721.457 1.107.64.462.236 1.234.63 1.288.908a1.84 1.84 0 0 1-.125 1.08l-.469.889c-.391.689-1.044 1.844-.059 2.651.23.213.628.522.992.8a2.69 2.69 0 0 0-.348 1.539 1.54 1.54 0 0 0 .626 1.045 9.29 9.29 0 0 0 .747.464c.627.357.872.524.96.853.057.434.017.875-.117 1.292l-.163.837a6.27 6.27 0 0 0 .361 2.874c.479 1.698 2.015 2.882 3.779 2.912a4.34 4.34 0 0 0 .872-.092 80.86 80.86 0 0 0 8.993-2.691c2.402 1.41 3.921 5.698 4.317 7.308.119.475.546.809 1.036.808l26.772-.075c.339-.001.658-.163.858-.436s.259-.626.157-.95a8.24 8.24 0 0 0-1.081-2.027c-.256-.368-.487-.753-.691-1.152a20.32 20.32 0 0 1-1.204-3.037c-.608-2.061-1.031-4.173-1.262-6.31-.374-3.191.109-6.424 1.402-9.366a23.84 23.84 0 0 1 2.897-4.579l1.901-2.699a16.5 16.5 0 0 0 2.197-5.195c.123-.569-.234-1.132-.802-1.264s-1.136.216-1.276.782a14.4 14.4 0 0 1-1.92 4.533c-.554.876-1.194 1.737-1.813 2.572-1.234 1.54-2.287 3.217-3.139 4.997A20.18 20.18 0 0 0 46.8 50.268a37.85 37.85 0 0 0 1.345 6.691 22.24 22.24 0 0 0 1.324 3.341 11.67 11.67 0 0 0 .827 1.387l.072.107-24.193.072a17.01 17.01 0 0 0-3.756-6.811l.96-.334 1.537-.533c4.567-1.456 6.852-3.536 6.789-6.186-.003-.283-.12-.553-.326-.748s-.481-.299-.764-.288c-.589.014-1.055.502-1.041 1.091.026 1.091-.874 2.689-5.308 4.101l-1.59.547-2.906 1.005h-.008c-3 1.1-6.06 2.026-9.167 2.773a1.9 1.9 0 0 1-2.197-1.42c-.229-.602-.319-1.248-.263-1.89.031-.213.081-.437.13-.655.227-.744.264-1.534.107-2.296-.31-.977-1.028-1.771-1.969-2.177l-.229-.131a3.93 3.93 0 0 1 .412-.661c.179-.227.258-.517.219-.803s-.192-.545-.425-.716a53.46 53.46 0 0 1-1.301-.996l.161-.287.545-1.031a3.98 3.98 0 0 0 .284-2.386c-.255-1.301-1.502-1.939-2.412-2.404-.307-.146-.6-.317-.879-.511a4.54 4.54 0 0 1-.64-.518c0-.162.174-.554.986-1.542 1.909-2.459 3.545-5.118 4.88-7.93a3.17 3.17 0 0 0 .412-1.442c-.112-1.073-.682-2.046-1.565-2.667-.432-.397-.841-.77-.886-1.085.01-.261.068-.519.173-.758l.576-1.354c.45-.926.807-1.895 1.067-2.892a28.61 28.61 0 0 1 .96-3.528 18.29 18.29 0 0 1 3.827-6.251c2.039-2.16 5.25-3.687 9.559-4.543a69.31 69.31 0 0 1 10.007-1.442c1.133-.058 2.268-.034 3.397.073A1.07 1.07 0 0 0 36.599.726a1.07 1.07 0 0 0-.872-.618c-1.233-.113-2.471-.138-3.708-.074a71.2 71.2 0 0 0-10.316 1.48c-4.809.96-8.305 2.646-10.69 5.168a20.4 20.4 0 0 0-4.279 6.979 31.19 31.19 0 0 0-1.051 3.855 13.81 13.81 0 0 1-.915 2.432c-.213.485-.433.971-.625 1.475-.243.564-.342 1.179-.29 1.791a4.1 4.1 0 0 0 1.56 2.374c.523.479.867.816.871 1.11-.039.162-.1.318-.181.463-1.277 2.69-2.842 5.233-4.668 7.585-.772.942-1.583 2.039-1.413 3.138a3.27 3.27 0 0 0 1.549 1.999z" fill="#7f8284"/><path d="M35.051 5.975l-.64 3.191a12.69 12.69 0 0 0-1.796.747L29.907 8.1c-.846-.554-1.965-.438-2.679.278l-1.771 1.77c-.73.717-.848 1.852-.282 2.704l1.805 2.695a12.7 12.7 0 0 0-.747 1.796l-3.187.64c-.996.201-1.712 1.077-1.711 2.093v2.517c-.001 1.014.713 1.889 1.707 2.092l3.191.64a12.7 12.7 0 0 0 .747 1.796l-1.813 2.708c-.554.846-.438 1.965.278 2.679l1.771 1.771a2.14 2.14 0 0 0 2.703.281l2.695-1.805a12.81 12.81 0 0 0 1.796.747l.64 3.187c.201.996 1.076 1.713 2.093 1.712h2.517c1.014.001 1.889-.713 2.092-1.707l.64-3.191a12.7 12.7 0 0 0 1.796-.747l2.708 1.813c.846.554 1.965.438 2.679-.278l1.77-1.77c.73-.717.849-1.852.282-2.704l-1.805-2.695a12.81 12.81 0 0 0 .747-1.796l3.187-.64c.633-.128 1.174-.537 1.469-1.111l1.607 1.077c.31.195.669.299 1.036.3a1.92 1.92 0 0 0 1.362-.566l1.419-1.419c.645-.648.749-1.66.248-2.425l-1.376-2.059a9.93 9.93 0 0 0 .516-1.239l2.414-.481A1.92 1.92 0 0 0 64 14.87v-2.005a1.92 1.92 0 0 0-1.541-1.889l-2.424-.483a9.89 9.89 0 0 0-.514-1.239l1.397-2.083a1.93 1.93 0 0 0-.267-2.398l-1.419-1.419c-.648-.646-1.66-.749-2.425-.249l-2.059 1.376a10.03 10.03 0 0 0-1.239-.516l-.482-2.414a1.92 1.92 0 0 0-1.89-1.55h-2.005a1.92 1.92 0 0 0-1.889 1.541l-.483 2.424a9.87 9.87 0 0 0-1.239.517l-2.083-1.397a1.93 1.93 0 0 0-2.398.267l-.96.96c-.138-.029-.278-.044-.419-.046h-2.517c-1.014-.001-1.889.713-2.092 1.707zm16.307 4.181l-.498-.498c1.849.247 3.319 1.673 3.624 3.513s-.628 3.664-2.298 4.494l-1.619-.32a12.71 12.71 0 0 0-.747-1.796l1.813-2.708c.556-.846.441-1.966-.275-2.681v-.003zm-8.928-5.18l2.438 1.638a1.07 1.07 0 0 0 1.139.031 7.8 7.8 0 0 1 1.952-.816c.391-.106.689-.424.768-.821l.573-2.873h1.668l.573 2.88c.079.397.377.716.768.821a7.8 7.8 0 0 1 1.952.816 1.07 1.07 0 0 0 1.139-.037l2.438-1.636 1.184 1.184-1.635 2.439a1.07 1.07 0 0 0-.031 1.139c.359.611.634 1.267.816 1.952.106.391.424.689.821.768l2.88.573v1.668l-2.874.573c-.397.079-.716.377-.821.768a7.8 7.8 0 0 1-.816 1.952 1.07 1.07 0 0 0 .031 1.139l1.636 2.438-1.184 1.184-2.377-1.59v-1.09a2.14 2.14 0 0 0-.747-1.624c1.878-1.809 2.467-4.578 1.488-6.995S52.88 7.46 50.273 7.468a6.17 6.17 0 0 0-1.898.311 2.16 2.16 0 0 0-1.493.329l-2.693 1.805a12.81 12.81 0 0 0-1.796-.747l-.64-3.187a2.02 2.02 0 0 0-.074-.252l.751-.751zm-6.055 5.24l.768-3.815h2.517l.767 3.818c.08.396.377.714.767.819a10.51 10.51 0 0 1 2.518 1.045 1.07 1.07 0 0 0 1.129-.036l3.228-2.159 1.788 1.778-2.165 3.231c-.226.338-.241.776-.036 1.128a10.5 10.5 0 0 1 1.045 2.518 1.07 1.07 0 0 0 .819.767l3.815.763v2.518l-3.818.767c-.396.08-.714.377-.819.767a10.5 10.5 0 0 1-1.045 2.518 1.07 1.07 0 0 0 .036 1.128l2.159 3.228-1.778 1.788-3.231-2.165c-.338-.227-.776-.241-1.129-.036a10.51 10.51 0 0 1-2.518 1.045 1.07 1.07 0 0 0-.767.819l-.764 3.815h-2.517l-.767-3.818a1.07 1.07 0 0 0-.767-.819 10.51 10.51 0 0 1-2.518-1.045 1.07 1.07 0 0 0-1.128.036l-3.228 2.159L26.948 31l2.165-3.231c.227-.338.241-.776.036-1.128a10.51 10.51 0 0 1-1.045-2.518 1.07 1.07 0 0 0-.819-.767l-3.815-.764v-2.517l3.819-.767a1.07 1.07 0 0 0 .819-.767 10.51 10.51 0 0 1 1.045-2.518 1.07 1.07 0 0 0-.036-1.128l-2.159-3.228 1.778-1.788 3.231 2.165c.338.227.776.241 1.128.036a10.51 10.51 0 0 1 2.518-1.045c.389-.107.684-.424.763-.819zM38.401 28.8a7.47 7.47 0 0 0 7.466-7.466 7.47 7.47 0 0 0-7.466-7.466 7.47 7.47 0 0 0-7.466 7.466c.005 4.122 3.345 7.462 7.466 7.466zm0-12.799c2.946 0 5.333 2.388 5.333 5.333s-2.388 5.333-5.333 5.333-5.333-2.388-5.333-5.333a5.34 5.34 0 0 1 5.333-5.333zm0 6.4c.589 0 1.067-.477 1.067-1.067s-.477-1.067-1.067-1.067-1.067.477-1.067 1.067.477 1.067 1.067 1.067z" fill="#ff6b00"/></svg>
